X: 1618
T: Ruhsârına Aybetme Nigâh Ettiğimi
C: Münir Nurettin Selçuk
O: Turkey
F: http://compmusic.upf.edu/node/140
N: nihavent--yuruksemai--yuruksemai--ruhsarina_aybetme--munir_nurettin_selcuk
N: makam= nihavent
N: form= yuruksemai
N: usul= yuruksemai = 6/8
M: 6/8
L: 1/16
K: C _B _e  
Q: 1/4=84
%%MIDI tuningsystem comma53
G4G4 G4A4 B6{c}A2  | A3cB2A2 A2{B}ABAGG^F G8  | \
w:  Ruh sâ rı na  ayb_  |  et *  *  *  me  *  *  *  ni *  *  *  gâh   | 
GAG2ABA2 BcB2cdc2 d4z2d2  | 
w:  *  *  *  *  *  *  *  *  *  *  *  *  *  ni  | 
f3ee3d d3cc3B B2A2G2{f}ed  | d8 z2e2d2c2 B2A2G2^F2  | 
w:  gâh  *  et *  ti *  ği *  mi   |  yâr   SAZ  | 
G4G4 G4A4 B6{c}A2  | A3cB2A2 A2{B}ABAGG^F G8  | \
w:  Ruh sâ rı na  ayb_  |  et *  *  *  me  *  *  *  ni *  *  *  gâh   | 
GAG2ABA2 BcB2cdc2 d4z2d2  | 
w:  *  *  *  *  *  *  *  *  *  *  *  *  *  ni  | 
f3ee3d d3cc3B B2A2G2{f}ed  | d8 z2.B2.A2.G2 d6z2  | \
w:  gâh  *  et *  ti *  ği *  mi   |  yâr   SAZ  | 
d4d4 d4d2{f}ed c6z2  | 
w:  Göz ya şı  dö *  *  *  küp   | 
d2g2f2e2 d3ccB{c}BA B8  | ABA2BcB2 cdc2d2e2 dcBA.G4  | 
w:  nâ *  *  *  le  *  vü  *  *  *  *  ah   |   | 
c3BB3A A3GG4 ^F2B4AG  | G3AB2c2 .d2.B2.A2.G2 d6z2  | 
w:  ah  *  et *  ti *  ği mi   |  yâr   SAZ  | 
d4d4 d4d2{f}ed c6z2  | d2g2f2e2 d3ccB{c}BA B8  | \
w:  Göz ya şı  dö *  *  *  küp   |  nâ *  *  *  le  *  vü  *  *  *  *  ah   | 
ABA2BcB2 cdc2d2e2 dcBA.G4  | 
w:   | 
c3BB3A A3GG4 ^F2B4AG  | G8 D4B2AG G6z2  | \
w:  ah  *  et *  ti *  ği mi   |  yâr   SAZ  | 
GABcd4 d4cd_7/8e^f g4g4  | 
w:  Ten  *  *  *  nen  ni  ten  *  *  *  nen  ni   | 
g^fgab4 b2a2g2g2 d'6z2  | d'2c'4b2 b3ag4 a3/2b/abc'2c'b  | 
w:  ten  *  *  *  nen  ni  *  te ne  nen   |  nâ *  *  te *  ne dir   | 
b6.d'2 .c'2.b2.a2.g2 .^f2.e2dcBA  | \
w:  ney    | 
GABcd4 d4cd_7/8e^f g4g4  | 
w:  Ten  *  *  *  nen  ni  ten  *  *  *  nen  ni   | 
g^fgab4 b2a2g2g2 d'6z2  | d'2c'4b2 b3ag4 a3/2b/abc'2c'b  | 
w:  ten  *  *  *  nen  ni  *  te ne  nen   |  nâ *  *  te *  ne dir   | 
b8 b3aagga b6z2  | b4b4 b4b2a2 a3g^f2g2  | \
w:  ney   SAZ  |  Gel  serv_ i  re *  vân   | 
a8 .a2.^f2.d2.f2 .a6z2  | 
w:  gel  SAZ  | 
^f4f4 f4g4 f2_7/8e4d2  | d8 z.d._7/8e.^f.g.a.b.c' b8  | \
w:  gel  ka şı  ke man   |  gel   SAZ  | 
b4b4 b4b2a2 a3g^f2g2  | 
w:  Gel  serv_ i  re *  vân   | 
a8 .a2.^f2.d2.f2 .a6z2  | ^f4f4 f4g4 f2_7/8e4d2  | \
w:  gel  SAZ  |  gel  ka şı  ke man   | 
d8 z2B2A2G2 d6z2  | 
w:  gel   SAZ  | 
d4d4 d4d2{f}ed c6z2  | d2g2f2e2 d3ccB{c}BA B8  | \
w:  Göz ya şı  dö *  *  *  küp   |  nâ *  *  *  le  *  vü  *  *  *  *  ah   | 
ABA2BcB2 cdc2d2e2 dcBA.G4  | 
w:   | 
c3BB3A A3GG4 ^F2B4AG  | G3AB2c2 .d2.B2.A2.G2 d6z2  | 
w:  ah  *  et *  ti *  ği mi   |  yâr   SAZ  | 
d4d4 d4d2{f}ed c6z2  | d2g2f2e2 d3ccB{c}BA B8  | \
w:  Göz ya şı  dö *  *  *  küp   |  nâ *  *  *  le  *  vü  *  *  *  *  ah   | 
ABA2BcB2 cdc2d2e2 dcBA.G4  | 
w:   | 
c3BB3A A3GG4 ^F2B4AG  | G8 d4b3/2a/g^f g6z2  | \
w:  ah  *  et *  ti *  ği mi   |  yâr   SAZ  | 
g4g4 g4baga g6z2  | 
w:  Ey  pa di şeh_ *  *  *  i   | 
g2b2a2g2 g2agag^fg f6z2  | g2d'2c'2b2 a2agg2^f2 agf_7/8ed4  | 
w:  hü *  *  *  sün   |  ta rah *  *  hüm   | 
z2a2g2a2 ^f3_7/8ee3d d2f4ed  | d8 g4^fbag g6z2  | \
w:  ça *  *  *  *  ğı *  dır   |  yâr   SAZ  | 
g4g4 g4baga g6z2  | 
w:  Ey  pa di şeh_ *  *  *  i   | 
g2b2a2g2 g2agag^fg f6z2  | g2d'2c'2b2 a2agg2^f2 agf_7/8ed4  | 
w:  hü *  *  *  sün   |  ta rah *  *  hüm   | 
z2a2g2a2 ^f3_7/8ee3d d2f4ed  | d8 z2B2A2G2 d6z2  | \
w:  ça *  *  *  *  ğı *  dır   |  yâr   SAZ  | 
d4d4 d4d2{f}ed c8  | 
w:  Af fey le  ki  *  *  *  bil  | 
d2g2f2e2 d3ccB{c}BA B8  | ABA2BcB2 cdc2d2e2 dcBAG2zG  | 
w:  mi *  *  *  şim  *  gü *  *  *  *  nâh   |  *  *  *  *  *  *  *  *  *  *  *  *  *  *  *  *  gü  | 
c3BB3A A3GG4 ^F2B4AG  | G3AB2c2 .d2.B2.A2.G2 d6z2  | 
w:  nâh  *  et *  ti *  ği mi   |  yâr   SAZ  | 
d4d4 d4d2{f}ed c8  | d2g2f2e2 d3ccB{c}BA B8  | \
w:  Af fey le  ki  *  *  *  bil  |  mi *  *  *  şim  *  gü *  *  *  *  nâh   | 
ABA2BcB2 cdc2d2e2 dcBAG2zG  | 
w:  *  *  *  *  *  *  *  *  *  *  *  *  *  *  *  *  gü  | 
c3BB3A A3GG4 ^F2B4AG  | G8 D4B2AG G6z2  | \
w:  nâh  *  et *  ti *  ği mi   |  yâr   SAZ  | 
GABcd4 d4cd_7/8e^f g4g4  | 
w:  Ten  *  *  *  nen  ni  ten  *  *  *  nen  ni   | 
g^fgab4 b2a2g2g2 d'6z2  | d'2c'4b2 b3ag4 a3/2b/abc'2c'b  | 
w:  ten  *  *  *  nen  ni  *  te ne  nen   |  nâ *  *  te *  ne dir   | 
b6.d'2 .c'2.b2.a2.g2 .^f2.e2dcBA  | \
w:  ney    | 
GABcd4 d4cd_7/8e^f g4g4  | 
w:  Ten  *  *  *  nen  ni  ten  *  *  *  nen  ni   | 
g^fgab4 b2a2g2g2 d'6z2  | d'2c'4b2 b3ag4 a3/2b/abc'2c'b  | 
w:  ten  *  *  *  nen  ni  *  te ne  nen   |  nâ *  *  te *  ne dir   | 
b8 b3aagga b6z2  | b4b4 b4b2a2 a3g^f2g2  | \
w:  ney   SAZ  |  Gel  serv_ i  re *  vân   | 
a8 .a2.^f2.d2.f2 .a6z2  | 
w:  gel  SAZ  | 
^f4f4 f4g4 f2_7/8e4d2  | d8 z.d._7/8e.^f.g.a.b.c' b8  | \
w:  gel  ka şı  ke man   |  gel   SAZ  | 
b4b4 b4b2a2 a3g^f2g2  | 
w:  Gel  serv_ i  re *  vân   | 
a8 .a2.^f2.d2.f2 .a6z2  | ^f4f4 f4g4 f2_7/8e4d2  | \
w:  gel  SAZ  |  gel  ka şı  ke man   | 
d8 z2B2A2G2 d6z2  | 
w:  gel   SAZ  | 
d4d4 d4d2{f}ed c6z2  | d2g2f2e2 d3ccB{c}BA B8  | \
w:  Göz ya şı  dö *  *  *  küp   |  nâ *  *  *  le  *  vü  *  *  *  *  ah   | 
ABA2BcB2 cdc2d2e2 dcBA.G4  | 
w:   | 
c3BB3A A3GG4 ^F2B4AG  | G4B4 d4B4 G6z2  | |


